X: 29233
T: New High Level, The
R: hornpipe
M: 4/4
K: Gmajor
|:D|G2 DG B2 GB|d2 ed cBAG|F2 DF A2 FA|d2 fe dcBA|
G2 DG B2 GB|d2 ed cBAG|F2 DF AcAF|1 G2 B2 G2:|2 G2 B2 G2AG||
|:FAdA fAdA|FAdA fAdA|^cA^ce ge^cA|^cA^ce ge^cA|
FAdA fAdA|FAdA fAdA|^cA^ce ge^ce|d2 f2 d2:|

